X: 457
T: A Visit To Ireland
R: jig
M: 6/8
K: Dmajor
|:ABA AFD|FAA ABc|dcB AGF|GEE E3|
ABA AFD|FAA ABc|dcd EFG|FDD D3:|
|:dcd ede|fed cBA|dcB AGF|GEE E3|
dcd ede|fed cBA|dcd EFG|FDD D3:|

